icon-themes/elementary_svg/cmd/sc_shadowed.svg

<svg viewBox="0 0 16 16" xmlns="http://www.w3.org/2000/svg" xmlns:xlink="http://www.w3.org/1999/xlink"><radialGradient id="a" cx="7.338" cy="-.047" gradientTransform="matrix(-1.84322 .07294 -.0791 -1.9993 19.207 -1.97)" gradientUnits="userSpaceOnUse" r="6.626"><stop offset="0" stop-color="#737373"/><stop offset=".262" stop-color="#636363"/><stop offset=".705" stop-color="#4b4b4b"/><stop offset="1" stop-color="#3f3f3f"/></radialGradient><filter id="b" color-interpolation-filters="sRGB" height="1.047" width="1.049" x="-.024" y="-.024"><feGaussianBlur stdDeviation=".125"/></filter>/&amp;gt;<g stroke-linejoin="round" stroke-width=".962"><path d="m13.43 15.67-.92-3.027h-4.638l-.922 3.027h-2.904l4.489-12.77h3.296l4.506 12.77zm-1.565-5.288q-1.278-4.115-1.444-4.654-.155-.54-.225-.852-.287 1.113-1.644 5.506z" fill="#8c8c8c" filter="url(#b)" opacity=".5" transform="scale(.9794 1.02103)"/><path d="m9.673 13.52-.903-3.092h-4.54l-.904 3.09h-2.846l4.398-13.036h3.23l4.412 13.04zm-1.533-5.4q-1.252-4.203-1.414-4.754-.154-.55-.222-.87-.28 1.137-1.61 5.622z" fill="url(#a)" stroke="#000" stroke-opacity=".467"/></g></svg>

<svg xmlns="http://www.w3.org/2000/svg" xmlns:xlink="http://www.w3.org/1999/xlink" viewBox="0 0 16 16"><defs><linearGradient id="a"><stop offset="0" stop-color="#737373"/><stop offset=".262" stop-color="#636363"/><stop offset=".705" stop-color="#4b4b4b"/><stop offset="1" stop-color="#3f3f3f"/></linearGradient><radialGradient xlink:href="#a" id="c" cx="7.338" cy="-.047" fx="7.338" fy="-.047" r="6.626" gradientTransform="matrix(-1.84322 .07294 -.0791 -1.9993 19.207 -1.97)" gradientUnits="userSpaceOnUse"/></defs><filter id="b" color-interpolation-filters="sRGB" height="1.047" width="1.049" x="-.024" y="-.024"><feGaussianBlur stdDeviation=".125"/></filter>/&gt;<path d="M13.43 15.67l-.92-3.027H7.872L6.95 15.67H4.046L8.535 2.9h3.296l4.506 12.77zm-1.565-5.288q-1.278-4.115-1.444-4.654-.155-.54-.225-.852-.287 1.113-1.644 5.506z" fill="#8c8c8c" filter="url(#b)" opacity=".5" stroke-linejoin="round" stroke-width=".962" transform="scale(.9794 1.02103)"/><path d="M9.673 13.52l-.903-3.092H4.23l-.904 3.09H.48L4.878.482h3.23l4.412 13.04zM8.14 8.12Q6.888 3.917 6.726 3.366q-.154-.55-.222-.87-.28 1.137-1.61 5.622z" fill="url(#c)" stroke="#000" stroke-width=".962" stroke-linejoin="round" stroke-opacity=".467"/></svg>
